X:439
T: Guazi hung
N: C1474
O: China, Hunan, Chaling
S: I, 559]
R: Xiaodiao]
M: 2/4
L: 1/16
K: A
a2eaf2e2 | b2eabab2
e2efe2ae | b2eabab2
a2eabeba | b2e4eb | a4f2e2
e2efe2ae | b2eabab2
e2efe2ae | b2eabab2
a2eabeba | b2e4eb | a4f2e2
aeaeb2eabab2
aeaeb2eabab2
abe4a2
a2eabeba | b2e4eb | a3fe2af | e8

